img/turtle.svg

<svg width="330" height="285" viewBox="0 0 330 285" fill="none" xmlns="http://www.w3.org/2000/svg">
<path d="M152.256 66.2668C166.656 74.3057 182.856 79.3302 194.706 91.4724C208.881 106.043 214.356 127.899 221.331 147.997C228.306 168.094 239.256 189.029 257.781 194.974C272.181 199.58 289.656 194.556 300.831 205.526C305.481 210.131 316.506 220.18 318.981 226.544C324.981 242.287 325.881 254.513 328.431 270.507C328.806 272.852 330.081 275.029 329.406 277.29C328.731 279.635 326.556 281.059 324.531 281.98C310.506 288.428 294.306 282.817 280.881 274.945C267.381 266.99 254.706 256.69 239.781 253.257C240.006 262.133 231.306 264.394 224.406 267.409C216.981 270.591 211.431 273.187 203.631 271.428C195.456 269.67 188.256 268.247 181.281 263.39C176.631 260.124 171.606 258.533 166.431 256.439C156.981 252.671 146.706 255.685 136.956 258.198C101.781 267.074 62.6311 268.079 31.9561 246.893C19.7311 238.435 8.55611 224.953 8.33111 208.791C19.0561 219.175 44.1811 218.756 58.1311 215.742C78.0061 211.638 85.8811 216.747 103.431 205.609C101.031 201.004 89.3311 191.876 82.9561 187.187C69.4561 177.138 65.7061 167.257 50.8561 160.222C35.9311 153.188 28.5061 139.455 25.2061 121.619C23.6311 112.993 17.6311 105.624 18.0811 96.748C19.1311 73.5522 12.3061 54.962 3.68113 34.5296C-1.64387 21.9686 -3.59388 -1.8135 14.8561 0.279991C29.3311 1.95478 40.9561 20.6288 56.0311 24.0621C73.7311 27.9979 88.6561 25.4856 105.531 35.0319C121.881 43.992 135.981 57.1391 152.256 66.2668Z" fill="#5C97C1"/>
</svg>

<svg width="330" height="285" fill="none" xmlns="http://www.w3.org/2000/svg"><path d="M152.256 66.267c14.4 8.039 30.6 13.063 42.45 25.205 14.175 14.571 19.65 36.427 26.625 56.525 6.975 20.097 17.925 41.032 36.45 46.977 14.4 4.606 31.875-.418 43.05 10.552 4.65 4.605 15.675 14.654 18.15 21.018 6 15.743 6.9 27.969 9.45 43.963.375 2.345 1.65 4.522.975 6.783-.675 2.345-2.85 3.769-4.875 4.69-14.025 6.448-30.225.837-43.65-7.035-13.5-7.955-26.175-18.255-41.1-21.688.225 8.876-8.475 11.137-15.375 14.152-7.425 3.182-12.975 5.778-20.775 4.019-8.175-1.758-15.375-3.181-22.35-8.038-4.65-3.266-9.675-4.857-14.85-6.951-9.45-3.768-19.725-.754-29.475 1.759-35.175 8.876-74.325 9.881-105-11.305-12.225-8.458-23.4-21.94-23.625-38.102 10.725 10.384 35.85 9.965 49.8 6.951 19.875-4.104 27.75 1.005 45.3-10.133-2.4-4.605-14.1-13.733-20.475-18.422-13.5-10.049-17.25-19.93-32.1-26.965-14.925-7.034-22.35-20.767-25.65-38.603-1.575-8.626-7.575-15.995-7.125-24.871 1.05-23.196-5.775-41.786-14.4-62.218C-1.644 21.969-3.594-1.813 14.856.28c14.475 1.675 26.1 20.349 41.175 23.782 17.7 3.936 32.625 1.424 49.5 10.97 16.35 8.96 30.45 22.107 46.725 31.235z" fill="#5C97C1"/></svg>
